packages/symbols/svgs/duotone/stop-duotone.svg

<svg width="24" height="24" viewBox="0 0 24 24" fill="none" xmlns="http://www.w3.org/2000/svg">
<path fill-rule="evenodd" clip-rule="evenodd" d="M1 2C1 1.44772 1.44772 1 2 1H22C22.5523 1 23 1.44772 23 2V22C23 22.5523 22.5523 23 22 23H2C1.44772 23 1 22.5523 1 22V2ZM3 3V21H21V3H3Z" fill="black"/>
</svg>

<svg width="24" height="24" viewBox="0 0 24 24" xmlns="http://www.w3.org/2000/svg"><path fill-rule="evenodd" clip-rule="evenodd" d="M1 2a1 1 0 0 1 1-1h20a1 1 0 0 1 1 1v20a1 1 0 0 1-1 1H2a1 1 0 0 1-1-1V2Zm2 1v18h18V3H3Z"/></svg>
